icons/ukui/scalable/actions/gnome-app-install-star.svg

<?xml version="1.0" encoding="iso-8859-1"?>
<!-- Generator: Adobe Illustrator 24.0.0, SVG Export Plug-In . SVG Version: 6.00 Build 0)  -->
<svg version="1.1" id="f" xmlns="http://www.w3.org/2000/svg" xmlns:xlink="http://www.w3.org/1999/xlink" x="0px" y="0px"
	 viewBox="0 0 16 16" style="enable-background:new 0 0 16 16;" xml:space="preserve">
<title>16</title>
<g id="_16">
	<path style="fill:none;stroke:#808080;stroke-miterlimit:10;" d="M4.51,1.5c-0.341,0.018-0.678,0.086-1,0.2L4.81,3L3,4.8L1.71,3.5
		C1.119,4.965,1.828,6.631,3.292,7.222C3.364,7.251,3.436,7.277,3.51,7.3c1.546,0.537,3.236-0.264,3.8-1.8
		c0.537-1.546-0.264-3.236-1.8-3.8C5.188,1.586,4.851,1.518,4.51,1.5z"/>
	<path style="fill:none;stroke:#808080;stroke-miterlimit:10;" d="M11.51,14.5c0.341-0.018,0.678-0.086,1-0.2l-1.3-1.3L13,11.2
		l1.3,1.3c0.567-1.516-0.202-3.204-1.718-3.771c-0.027-0.01-0.055-0.02-0.082-0.029c-1.546-0.537-3.236,0.264-3.8,1.8
		c-0.537,1.546,0.264,3.236,1.8,3.8c0.319,0.123,0.658,0.191,1,0.2H11.51z"/>
	<line style="fill:none;stroke:#808080;stroke-miterlimit:10;" x1="7.2" y1="5.69" x2="10.3" y2="8.69"/>
	<line style="fill:none;stroke:#808080;stroke-miterlimit:10;" x1="5.82" y1="7.41" x2="8.92" y2="10.41"/>
</g>
</svg>

<?xml version="1.0" encoding="utf-8"?>
<!-- Generator: Adobe Illustrator 25.0.0, SVG Export Plug-In . SVG Version: 6.00 Build 0)  -->
<svg version="1.1" id="f" xmlns="http://www.w3.org/2000/svg" xmlns:xlink="http://www.w3.org/1999/xlink" x="0px" y="0px"
	 viewBox="0 0 16 16" style="enable-background:new 0 0 16 16;" xml:space="preserve">
<style type="text/css">
	.st0{opacity:0.75;}
	.st1{fill:none;stroke:#1F2022;stroke-miterlimit:10;}
</style>
<g id="_16" class="st0">
	<path class="st1" d="M4.5,1.5c-0.3,0-0.7,0.1-1,0.2L4.8,3L3,4.8L1.7,3.5C1.1,5,1.8,6.6,3.3,7.2c0.1,0,0.1,0.1,0.2,0.1
		C5.1,7.8,6.7,7,7.3,5.5C7.8,4,7,2.3,5.5,1.7C5.2,1.6,4.9,1.5,4.5,1.5z"/>
	<path class="st1" d="M11.5,14.5c0.3,0,0.7-0.1,1-0.2L11.2,13l1.8-1.8l1.3,1.3c0.6-1.5-0.2-3.2-1.7-3.8h-0.1C11,8.2,9.3,9,8.7,10.5
		C8.2,12,9,13.7,10.5,14.3C10.8,14.4,11.2,14.5,11.5,14.5L11.5,14.5z"/>
	<line class="st1" x1="7.2" y1="5.7" x2="10.3" y2="8.7"/>
	<line class="st1" x1="5.8" y1="7.4" x2="8.9" y2="10.4"/>
</g>
</svg>
